assets/icons/graphic-tablet-filled.svg

<?xml version="1.0" encoding="UTF-8" standalone="no"?>
<svg
   viewBox="0 0 24 24"
   height="24"
   width="24"
   version="1.1"
   id="svg8"
   sodipodi:docname="graphic-tablet-filled.svg"
   inkscape:version="1.2 (1:1.2.1+202207142221+cd75a1ee6d)"
   xmlns:inkscape="http://www.inkscape.org/namespaces/inkscape"
   xmlns:sodipodi="http://sodipodi.sourceforge.net/DTD/sodipodi-0.dtd"
   xmlns="http://www.w3.org/2000/svg"
   xmlns:svg="http://www.w3.org/2000/svg">
  <defs
     id="defs12" />
  <sodipodi:namedview
     id="namedview10"
     pagecolor="#ffffff"
     bordercolor="#666666"
     borderopacity="1.0"
     inkscape:pageshadow="2"
     inkscape:pageopacity="0.0"
     inkscape:pagecheckerboard="0"
     showgrid="true"
     inkscape:zoom="28"
     inkscape:cx="12.660714"
     inkscape:cy="7"
     inkscape:window-width="1920"
     inkscape:window-height="1043"
     inkscape:window-x="0"
     inkscape:window-y="0"
     inkscape:window-maximized="1"
     inkscape:current-layer="svg8"
     inkscape:showpageshadow="2"
     inkscape:deskcolor="#d1d1d1">
    <inkscape:grid
       type="xygrid"
       id="grid829" />
    <inkscape:grid
       type="xygrid"
       id="grid824"
       dotted="true"
       spacingx="0.5"
       spacingy="0.5"
       empspacing="10" />
  </sodipodi:namedview>
  <path
     id="path859"
     style="color:#000000;fill:#808080;fill-opacity:1;-inkscape-stroke:none"
     d="M 5.4550781 4 C 4.4865002 4.00898 3.7372567 4.0732708 3.1171875 4.4453125 C 2.703808 4.6933409 2.3972492 5.1012214 2.2285156 5.6074219 C 2.0597826 6.1136214 2 6.7222264 2 7.5 L 2 17.5 C 2 18.277773 2.0597824 18.88638 2.2285156 19.392578 C 2.3972492 19.89878 2.703808 20.306659 3.1171875 20.554688 C 3.9439465 21.050742 5.0000075 21 6.5 21 L 17.5 21 C 18.999994 21 20.056054 21.050738 20.882812 20.554688 C 21.296194 20.306659 21.602754 19.89878 21.771484 19.392578 C 21.940218 18.88638 22 18.277773 22 17.5 L 22 7.5 C 22 6.7222264 21.94022 6.1136214 21.771484 5.6074219 C 21.602754 5.1012214 21.296194 4.6933409 20.882812 4.4453125 C 20.263608 4.0737933 19.515447 4.0091246 18.548828 4 L 20 5.4511719 L 10.681641 14.605469 L 10.625 14.640625 C 10.49875 14.720625 10.063123 14.979844 9.265625 15.371094 A 22.70375 22.70375 0 0 1 6.1503906 16.636719 L 5 17 L 5.3632812 15.849609 C 5.7532807 14.622113 6.236407 13.531873 6.6289062 12.734375 C 7.0201556 11.936877 7.2811721 11.49875 7.3574219 11.375 L 7.3945312 11.318359 L 14.582031 4 L 6.5 4 C 6.1250019 4 5.7779375 3.99701 5.4550781 4 z M 18 11 L 19 11 L 19 18 L 8 18 L 8 17 L 18 17 L 18 11 z M 8.6132812 11.861328 L 8.3945312 12.085938 C 8.3995313 12.078438 8.1107025 12.557658 7.7519531 13.285156 C 7.6207035 13.552656 7.4731248 13.955625 7.328125 14.328125 L 7.671875 14.669922 C 8.0443742 14.524922 8.4453912 14.379296 8.7128906 14.248047 C 9.4403892 13.889296 9.9228125 13.599269 9.9140625 13.605469 L 10.136719 13.386719 L 8.6132812 11.861328 z " />
</svg>

<svg height="24" width="24" xmlns="http://www.w3.org/2000/svg"><path style="color:#000;fill:gray;fill-opacity:1;-inkscape-stroke:none" d="M5.455 4c-.968.009-1.718.073-2.338.445-.413.248-.72.656-.888 1.162C2.059 6.114 2 6.722 2 7.5v10c0 .778.06 1.386.229 1.893.168.506.475.914.888 1.162C3.944 21.05 5 21 6.5 21h11c1.5 0 2.556.05 3.383-.445.413-.248.72-.656.888-1.162.17-.507.229-1.115.229-1.893v-10c0-.778-.06-1.386-.229-1.893-.168-.506-.475-.914-.888-1.162-.62-.371-1.368-.436-2.334-.445L20 5.451l-9.318 9.154-.057.036c-.126.08-.562.339-1.36.73a22.704 22.704 0 0 1-3.115 1.266L5 17l.363-1.15c.39-1.228.873-2.318 1.266-3.116.391-.797.652-1.235.728-1.359l.038-.057L14.582 4H6.5c-.375 0-.722-.003-1.045 0zM18 11h1v7H8v-1h10v-6zm-9.387.861-.218.225c.005-.008-.284.472-.643 1.2-.131.267-.279.67-.424 1.042l.344.342c.372-.145.773-.29 1.04-.422.728-.359 1.21-.649 1.202-.643l.223-.218-1.524-1.526z"/></svg>
